source/images/icons/icon-editorial/profil.svg

<?xml version="1.0" encoding="UTF-8"?>
<svg width="80px" height="80px" viewBox="0 0 80 80" version="1.1" xmlns="http://www.w3.org/2000/svg" xmlns:xlink="http://www.w3.org/1999/xlink">
    <!-- Generator: Sketch 55.2 (78181) - https://sketchapp.com -->
    <title>Illustrative Icons/Profil</title>
    <desc>Created with Sketch.</desc>
    <g id="Illustrative-Icons/Profil" stroke="none" stroke-width="1" fill="none" fill-rule="evenodd">
        <path d="M61.1209803,64.765779 C61.5538239,65.2025536 61.7110024,65.8421795 61.5298942,66.4298235 C61.348786,67.0174675 60.8588183,67.4576471 60.2551991,67.5749904 C59.6515798,67.6923337 59.0323872,67.4677743 58.6443137,66.990779 C53.8989885,61.7005811 47.1292831,58.6759351 40.022647,58.670779 L39.787647,58.670779 C30.8548344,58.667407 22.5995281,63.4323809 18.1343136,71.1691123 C17.8464611,71.7040113 17.2903928,72.039946 16.6829881,72.0459746 C16.0755833,72.0518426 15.5130427,71.7268625 15.2147698,71.1977035 C14.9164969,70.6685445 14.9297322,70.0190148 15.2493136,69.5024456 C17.7009967,65.2670821 21.2023886,61.7346942 25.4159803,59.245779 C27.2889261,58.1426272 29.2833215,57.260082 31.3593136,56.615779 C23.8572625,52.7336634 19.9786761,44.2282162 21.9667096,36.0185076 C23.9547432,27.808799 31.2947704,22.0200111 39.741734,22 C48.1886976,21.9800924 55.5559993,27.7341284 57.5828079,35.9343503 C59.6096166,44.1345722 55.7712683,52.6582537 48.287647,56.575779 C53.2315242,58.0859654 57.6689912,60.9178761 61.1209803,64.765779 Z M24.787647,40.3374456 C24.7968322,48.6179092 31.5071833,55.3282604 39.787647,55.3374456 C48.0719182,55.3374456 54.787647,48.6217169 54.787647,40.3374456 C54.787647,32.0531743 48.0719182,25.3374456 39.787647,25.3374456 C31.5033757,25.3374456 24.787647,32.0531743 24.787647,40.3374456 Z M45.6809803,46.2291123 L45.6843136,46.2307789 C46.3382785,45.5991586 47.3777883,45.6081916 48.0206779,46.2510813 C48.6635676,46.893971 48.6726007,47.9334808 48.0409803,48.5874456 C45.8541074,50.777672 42.8860578,52.0084107 39.7909803,52.0084107 C36.6959028,52.0084107 33.7278532,50.777672 31.5409803,48.5874456 C30.8897445,47.9366701 30.8893715,46.8811814 31.540147,46.2299456 C32.1909225,45.5787099 33.2464112,45.5783368 33.897647,46.2291123 C37.1518124,49.4822951 42.4268149,49.4822951 45.6809803,46.2291123 Z M63.1209803,72.0041123 C62.2005058,72.0041123 61.4543137,71.2579202 61.4543137,70.3374456 C61.4543137,69.4169711 62.2005058,68.670779 63.1209803,68.670779 C64.0414549,68.670779 64.787647,69.4169711 64.787647,70.3374456 C64.787647,71.2579202 64.0414549,72.0041123 63.1209803,72.0041123 Z" id="Shape-color" fill="#ADB5BD"></path>
    </g>
</svg>

<svg width="80" height="80">
    <title>
        Illustrative Icons/Profil
    </title>
    <path d="M61.121 64.766a1.667 1.667 0 1 1-2.477 2.225 25.04 25.04 0 0 0-18.621-8.32h-.235a24.99 24.99 0 0 0-21.654 12.498 1.667 1.667 0 1 1-2.885-1.667 28.488 28.488 0 0 1 10.167-10.256 28.155 28.155 0 0 1 5.943-2.63 18.333 18.333 0 1 1 16.929-.04 28.378 28.378 0 0 1 12.833 8.19zM24.788 40.337c.009 8.28 6.72 14.991 15 15 8.284 0 15-6.715 15-15 0-8.284-6.716-15-15-15-8.285 0-15 6.716-15 15zM45.68 46.23l.003.002a1.667 1.667 0 0 1 2.357 2.356 11.658 11.658 0 0 1-16.5 0 1.667 1.667 0 1 1 2.357-2.358 8.333 8.333 0 0 0 11.783 0zm17.44 25.775a1.667 1.667 0 1 1 0-3.333 1.667 1.667 0 0 1 0 3.333z" fill="#ADB5BD" fill-rule="evenodd"/>
</svg>
